svgs/solid/car-circle-bolt.svg

<svg xmlns="http://www.w3.org/2000/svg" viewBox="0 0 640 512"><!--! Font Awesome Pro 6.2.0 by @fontawesome - https://fontawesome.com License - https://fontawesome.com/license (Commercial License) Copyright 2022 Fonticons, Inc. --><path d="M135.2 117.4L109.1 192H402.9l-26.1-74.6C372.3 104.6 360.2 96 346.6 96H165.4c-13.6 0-25.7 8.6-30.2 21.4zM39.6 196.8L74.8 96.3C88.3 57.8 124.6 32 165.4 32H346.6c40.8 0 77.1 25.8 90.6 64.3l34.1 97.4C385.8 205.7 320 279.2 320 368c0 10.9 1 21.6 2.9 32H96v48c0 17.7-14.3 32-32 32H32c-17.7 0-32-14.3-32-32V400 256c0-26.7 16.4-49.6 39.6-59.2zM128 288c0-17.7-14.3-32-32-32s-32 14.3-32 32s14.3 32 32 32s32-14.3 32-32zM496 512c-79.5 0-144-64.5-144-144s64.5-144 144-144s144 64.5 144 144s-64.5 144-144 144zm47.9-225c-4.3-3.7-10.6-4-15.1-.6l-96 72c-4.1 3.1-5.8 8.5-4.2 13.4s6.2 8.2 11.4 8.2h35.6l-30.1 54.2c-2.8 5-1.7 11.1 2.6 14.9s10.6 4 15.1 .6l96-72c4.1-3.1 5.8-8.5 4.2-13.4s-6.2-8.2-11.4-8.2H516.4l30.1-54.2c2.8-5 1.7-11.1-2.6-14.9z"/></svg>

<svg xmlns="http://www.w3.org/2000/svg" viewBox="0 0 640 512"><!--! Font Awesome Pro 6.1.2 by @fontawesome - https://fontawesome.com License - https://fontawesome.com/license (Commercial License) Copyright 2022 Fonticons, Inc. --><path d="M39.61 196.8L74.8 96.29C88.27 57.78 124.6 32 165.4 32H346.6C387.4 32 423.7 57.78 437.2 96.29L471.3 193.7C385.8 205.7 320 279.2 320 368C320 378.9 320.1 389.6 322.9 400H96V448C96 465.7 81.67 480 64 480H32C14.33 480 0 465.7 0 448V256C0 229.3 16.36 206.4 39.61 196.8V196.8zM109.1 192H402.9L376.8 117.4C372.3 104.6 360.2 96 346.6 96H165.4C151.8 96 139.7 104.6 135.2 117.4L109.1 192zM96 256C78.33 256 64 270.3 64 288C64 305.7 78.33 320 96 320C113.7 320 128 305.7 128 288C128 270.3 113.7 256 96 256zM352 368C352 288.5 416.5 224 496 224C575.5 224 640 288.5 640 368C640 447.5 575.5 512 496 512C416.5 512 352 447.5 352 368zM528.8 286.4L432.8 358.4C428.7 361.5 426.1 366.9 428.6 371.8C430.2 376.7 434.8 380 440 380H475.6L445.5 434.2C442.8 439.1 443.8 445.3 448.1 449C452.4 452.8 458.7 452.1 463.2 449.6L559.2 377.6C563.3 374.5 565 369.1 563.4 364.2C561.8 359.3 557.2 356 552 356H516.4L546.5 301.8C549.2 296.9 548.2 290.7 543.9 286.1C539.6 283.2 533.3 283 528.8 286.4V286.4z"/></svg>
